; generated by PrusaSlicer 2.9.0 on 2025-05-15 at 04:14:43 UTC


;
;
; 

; external perimeters extrusion width = 0.45mm
; perimeters extrusion width = 0.45mm
; infill extrusion width = 0.45mm
; solid infill extrusion width = 0.45mm
; top infill extrusion width = 0.40mm
; first layer extrusion width = 0.42mm

M73 P0 R65
M73 Q0 S66
M201 X1000 Y1000 Z200 E5000 ; sets maximum accelerations, mm/sec^2
M203 X200 Y200 Z12 E120 ; sets maximum feedrates, mm / sec
M204 S1250 T1250 ; sets acceleration (S) and retract acceleration (R), mm/sec^2
M205 X8.00 Y8.00 Z0.40 E4.50 ; sets the jerk limits, mm/sec
M205 S0 T0 ; sets the minimum extruding and travel feed rate, mm/sec

; printing object chinese_name v1.stl id:0 copy 0
; stop printing object chinese_name v1.stl id:0 copy 0

;TYPE:Custom
M862.3 P "MK3S" ; printer model check
M862.1 P0.4 ; nozzle diameter check
M115 U3.14.1 ; tell printer latest fw version
G90 ; use absolute coordinates
M83 ; extruder relative mode
M104 S215 ; set extruder temp
M140 S60 ; set bed temp
M190 S60 ; wait for bed temp
M109 S215 ; wait for extruder temp
G28 W ; home all without mesh bed level
G80 X90.1498 Y80.0307 W69.533 H49.3901 ; mesh bed levelling

G1 Z0.2 F720
G1 Y-3 F1000 ; go outside print area
G92 E0
G1 X60 E9 F1000 ; intro line
G1 X100 E12.5 F1000 ; intro line

G92 E0
M221 S95

; Don't change E values below. Excessive value can damage the printer.
M907 E430 ; set extruder motor current
G21 ; set units to millimeters
G90 ; use absolute coordinates
M83 ; use relative distances for extrusion

M900 K0.05 ; Filament gcode LA 1.5
M900 K30 ; Filament gcode LA 1.0




M107
;LAYER_CHANGE
;Z:0.2
;HEIGHT:0.2
G1 E-.8 F2100
G1 Z.6 F720
G1 X92.149 Y82.744 F10800
G1 Z.2 F720
G1 E.8 F2100
M204 S800
;TYPE:Skirt/Brim
;WIDTH:0.42
G1 F1200
G1 X92.755 Y82.136 E.02692
G1 X94.412 Y81.028 E.0625
G1 X94.993 Y80.753 E.02015
G1 X96.441 Y80.314 E.04744
G1 X97.077 Y80.219 E.02016
G1 X152.419 Y80.229 E1.73521
G1 X154.371 Y80.551 E.06203
G1 X155.092 Y80.83 E.02424
G1 X156.656 Y81.783 E.05742
G1 X157.235 Y82.296 E.02425
G1 X158.459 Y83.847 E.06195
G1 X158.809 Y84.486 E.02284
G1 X159.373 Y86.112 E.05396
G1 X159.494 Y86.83 E.02283
G1 X159.49 Y122.498 E1.11835
G1 X159.396 Y123.133 E.02013
M73 Q0 S65
G1 X158.956 Y124.582 E.04748
G1 X158.681 Y125.163 E.02015
G1 X157.574 Y126.82 E.06248
G1 X156.966 Y127.426 E.02692
G1 X155.267 Y128.555 E.06396
G1 X154.473 Y128.881 E.02691
G1 X153.115 Y129.145 E.04338
G1 X152.209 Y129.232 E.02854
G1 X97.623 Y129.232 E1.71151
G1 X96.718 Y129.145 E.02851
G1 X95.462 Y128.901 E.04012
G1 X94.74 Y128.621 E.02428
G1 X93.177 Y127.669 E.05738
G1 X92.598 Y127.156 E.02425
G1 X91.373 Y125.604 E.06199
G1 X91.023 Y124.966 E.02282
G1 X90.459 Y123.339 E.05399
G1 X90.338 Y122.622 E.0228
G1 X90.342 Y87.5 E1.10123
G1 X90.43 Y86.595 E.02851
G1 X90.694 Y85.236 E.04341
G1 X91.019 Y84.442 E.0269
G1 X92.115 Y82.794 E.06206
M204 S1000
;WIPE_START
G1 F8640
G1 X92.149 Y82.744 E-.01396
G1 X92.755 Y82.136 E-.19821
G1 X94.412 Y81.028 E-.46026
G1 X94.911 Y80.792 E-.12757
;WIPE_END
G1 Z.6 F720
G1 X93.953 Y84.656 F10800
G1 Z.2 F720
G1 E.8 F2100
M204 S800
G1 F1200
G1 X95.133 Y83.493 E.05195
G1 X95.793 Y83.15 E.02332
G1 X97.342 Y82.704 E.05054
G1 X152.363 Y82.706 E1.72514
G1 X154.129 Y83.171 E.05726
G1 X155.584 Y84.216 E.05617
G1 X156.538 Y85.576 E.05209
G1 X156.875 Y86.511 E.03116
G1 X157.021 Y87.482 E.03079
G1 X157.015 Y94.456 E.21866
G1 X156.829 Y95.227 E.02487
G1 X157.015 Y95.998 E.02487
G1 X157.015 Y103.954 E.24945
G1 X156.829 Y104.726 E.0249
G1 X157.015 Y105.498 E.0249
G1 X157.015 Y113.455 E.24949
G1 X156.845 Y114.161 E.02277
G1 X157.011 Y115.028 E.02768
G1 X157.021 Y121.987 E.21819
G1 X156.801 Y123.202 E.03871
G1 X156.273 Y124.345 E.03948
G1 X155.47 Y125.349 E.04031
G1 X154.468 Y126.112 E.03949
G1 X152.327 Y126.751 E.07006
G1 X97.631 Y126.757 E1.71495
G1 X96.332 Y126.521 E.0414
G1 X95.088 Y125.946 E.04297
G1 X93.651 Y124.48 E.06437
G1 X93.078 Y123.343 E.03992
G1 X92.816 Y122.045 E.04152
G1 X92.818 Y114.997 E.22099
G1 X93.003 Y114.226 E.02486
G1 X92.817 Y113.453 E.02493
G1 X92.817 Y105.498 E.24942
G1 X93.003 Y104.727 E.02487
G1 X92.817 Y103.953 E.02496
G1 X92.817 Y95.998 E.24942
G1 X93.003 Y95.227 E.02487
G1 X92.817 Y94.453 E.02496
G1 X92.817 Y87.508 E.21776
G1 X93.052 Y86.212 E.0413
G1 X93.618 Y84.987 E.04231
G1 X93.911 Y84.698 E.0129
M204 S1000
G1 X93.911 Y84.698 F10800
G1 X94.144 Y84.946
M204 S800
G1 F1200
G1 X95.372 Y83.785 E.05299
G1 X95.916 Y83.506 E.01917
G1 X97.37 Y83.081 E.0475
G1 X152.339 Y83.083 E1.72351
G1 X154.07 Y83.564 E.05633
G1 X155.335 Y84.5 E.04934
G1 X156.192 Y85.728 E.04695
G1 X156.505 Y86.587 E.02867
G1 X156.644 Y87.496 E.02883
G1 X156.638 Y94.432 E.21747
G1 X156.44 Y95.227 E.02569
G1 X156.638 Y96.022 E.02569
G1 X156.638 Y103.93 E.24795
G1 X156.44 Y104.726 E.02572
G1 X156.638 Y105.522 E.02572
G1 X156.638 Y113.431 E.24798
G1 X156.459 Y114.15 E.02323
G1 X156.634 Y115.047 E.02866
G1 X156.644 Y121.97 E.21707
G1 X156.435 Y123.109 E.03631
G1 X155.941 Y124.164 E.03653
G1 X155.192 Y125.094 E.03744
G1 X154.268 Y125.79 E.03627
G1 X152.3 Y126.374 E.06436
G1 X97.648 Y126.38 E1.71358
G1 X96.425 Y126.155 E.03899
G1 X95.28 Y125.619 E.03964
G1 X93.943 Y124.239 E.06025
G1 X93.427 Y123.199 E.0364
G1 X93.193 Y122.027 E.03747
G1 X93.195 Y115.021 E.21967
G1 X93.392 Y114.226 E.02568
G1 X93.194 Y113.429 E.02575
G1 X93.194 Y105.522 E.24792
G1 X93.392 Y104.727 E.02569
G1 X93.194 Y103.929 E.02578
G1 X93.194 Y96.022 E.24792
G1 X93.392 Y95.227 E.02569
G1 X93.194 Y94.429 E.02578
G1 X93.194 Y87.525 E.21647
G1 X93.419 Y86.305 E.0389
G1 X94.033 Y85.051 E.04378
G1 X94.101 Y84.987 E.00293
M73 Q1 S65
M204 S1000
G1 X94.101 Y84.987 F10800
G1 X94.365 Y85.264
M204 S800
G1 F1200
G1 X95.61 Y84.079 E.05389
G1 X96.039 Y83.863 E.01506
M73 P1 R65
G1 X97.397 Y83.458 E.04443
G1 X152.314 Y83.46 E1.72188
G1 X153.831 Y83.865 E.04923
G1 X155.086 Y84.785 E.04879
G1 X155.847 Y85.881 E.04184
G1 X156.136 Y86.664 E.02617
G1 X156.267 Y87.51 E.02684
G1 X156.261 Y94.408 E.21628
G1 X156.051 Y95.227 E.02651
G1 X156.261 Y96.046 E.02651
G1 X156.261 Y103.906 E.24644
G1 X156.05 Y104.726 E.02655
G1 X156.261 Y105.546 E.02655
G1 X156.261 Y113.406 E.24644
G1 X156.072 Y114.139 E.02373
G1 X156.257 Y115.066 E.02964
G1 X156.267 Y121.952 E.21591
G1 X156.069 Y123.015 E.0339
G1 X155.611 Y123.981 E.03352
G1 X154.915 Y124.837 E.03459
G1 X154.07 Y125.468 E.03307
G1 X152.273 Y125.997 E.05873
G1 X97.666 Y126.003 E1.71216
G1 X96.519 Y125.789 E.03658
G1 X95.473 Y125.293 E.0363
G1 X94.267 Y124.044 E.05444
G1 X93.791 Y123.099 E.03318
G1 X93.57 Y122.008 E.0349
G1 X93.572 Y115.046 E.21829
G1 X93.782 Y114.226 E.02654
G1 X93.572 Y113.405 E.02657
G1 X93.572 Y105.546 E.24641
G1 X93.782 Y104.727 E.02651
G1 X93.572 Y103.905 E.0266
G1 X93.572 Y96.046 E.24641
G1 X93.782 Y95.227 E.02651
G1 X93.572 Y94.405 E.0266
G1 X93.572 Y87.543 E.21515
G1 X93.785 Y86.398 E.03652
G1 X94.285 Y85.341 E.03666
G1 X94.322 Y85.306 E.0016
M204 S1000
G1 X94.322 Y85.306 F10800
G1 X94.603 Y85.549
M204 S800
G1 F1200
G1 X95.807 Y84.402 E.05214
G1 X96.166 Y84.218 E.01265
G1 X97.426 Y83.835 E.04129
G1 X152.288 Y83.837 E1.72016
G1 X153.682 Y84.215 E.04529
G1 X154.796 Y85.028 E.04324
G1 X155.502 Y86.035 E.03856
G1 X155.775 Y86.777 E.02479
G1 X155.89 Y87.524 E.0237
G1 X155.884 Y94.382 E.21503
M73 P1 R64
G1 X155.66 Y95.227 E.02741
G1 X155.884 Y96.071 E.02738
G1 X155.884 Y103.88 E.24485
G1 X155.66 Y104.726 E.02744
G1 X155.884 Y105.571 E.02741
G1 X155.884 Y113.381 E.24488
G1 X155.673 Y114.172 E.02567
G1 X155.88 Y115.086 E.02938
G1 X155.89 Y121.936 E.21478
G1 X155.717 Y122.878 E.03003
G1 X155.302 Y123.763 E.03065
G1 X154.669 Y124.55 E.03167
G1 X153.872 Y125.145 E.03119
G1 X152.246 Y125.619 E.0531
G1 X97.684 Y125.626 E1.71075
G1 X96.614 Y125.423 E.03415
G1 X95.668 Y124.969 E.0329
G1 X94.561 Y123.806 E.05034
G1 X94.141 Y122.955 E.02976
G1 X93.947 Y121.989 E.03089
G1 X93.949 Y115.071 E.21691
G1 X94.172 Y114.226 E.0274
G1 X93.949 Y113.38 E.02743
G1 X93.949 Y105.571 E.24485
G1 X94.172 Y104.727 E.02737
G1 X93.949 Y103.879 E.02749
G1 X93.949 Y96.071 E.24481
G1 X94.172 Y95.227 E.02737
G1 X93.949 Y94.379 E.02749
G1 X93.949 Y87.56 E.2138
G1 X94.136 Y86.537 E.03261
G1 X94.578 Y85.603 E.0324
M204 S1000
G1 X94.578 Y85.603 F10800
G1 X94.917 Y85.766
M204 S800
G1 F1200
G1 X94.928 Y85.744 E.00077
G1 X96.004 Y84.724 E.04649
G1 X97.455 Y84.212 E.04824
G1 X152.263 Y84.215 E1.71847
G1 X153.547 Y84.568 E.04175
G1 X154.545 Y85.311 E.03901
G1 X155.157 Y86.189 E.03356
G1 X155.406 Y86.854 E.02226
G1 X155.513 Y87.539 E.02174
G1 X155.507 Y94.356 E.21374
G1 X155.269 Y95.227 E.02831
G1 X155.507 Y96.097 E.02828
G1 X155.507 Y103.854 E.24322
G1 X155.268 Y104.726 E.02835
G1 X155.507 Y105.597 E.02832
G1 X155.507 Y113.355 E.24325
G1 X155.273 Y114.2 E.02749
G1 X155.503 Y115.106 E.02931
G1 X155.513 Y121.919 E.21362
G1 X155.351 Y122.784 E.02759
G1 X154.972 Y123.58 E.02764
G1 X154.393 Y124.293 E.0288
G1 X153.676 Y124.821 E.02792
G1 X152.22 Y125.242 E.04752
G1 X97.701 Y125.249 E1.7094
G1 X96.754 Y125.072 E.03021
G1 X95.862 Y124.644 E.03102
G1 X94.885 Y123.612 E.04456
G1 X94.505 Y122.854 E.02659
G1 X94.325 Y121.97 E.02829
G1 X94.326 Y115.097 E.2155
G1 X94.563 Y114.226 E.0283
G1 X94.326 Y113.354 E.02833
G1 X94.326 Y105.597 E.24322
G1 X94.564 Y104.727 E.02828
G1 X94.326 Y103.854 E.02837
G1 X94.326 Y96.097 E.24322
G1 X94.564 Y95.227 E.02828
G1 X94.326 Y94.354 E.02837
G1 X94.326 Y87.578 E.21246
G1 X94.502 Y86.631 E.0302
G1 X94.891 Y85.82 E.0282
M204 S1000
G1 X94.891 Y85.82 F10800
G1 X95.229 Y85.985
M204 S800
G1 F1200
G1 X95.251 Y85.941 E.00154
G1 X96.203 Y85.045 E.04099
G1 X97.485 Y84.589 E.04266
G1 X152.238 Y84.592 E1.71674
G1 X153.353 Y84.894 E.03622
M73 Q1 S64
G1 X154.256 Y85.554 E.03507
G1 X154.813 Y86.346 E.03036
G1 X155.037 Y86.934 E.01973
G1 X155.135 Y87.554 E.01968
G1 X155.13 Y94.329 E.21243
G1 X154.877 Y95.228 E.02928
G1 X155.13 Y96.124 E.02919
G1 X155.13 Y103.828 E.24155
G1 X154.876 Y104.726 E.02926
G1 X155.13 Y105.624 E.02926
G1 X155.13 Y113.328 E.24155
G1 X154.872 Y114.231 E.02945
G1 X155.126 Y115.127 E.0292
G1 X155.135 Y121.901 E.21239
G1 X154.986 Y122.688 E.02511
G1 X154.643 Y123.394 E.02461
G1 X154.117 Y124.034 E.02597
G1 X153.481 Y124.497 E.02467
G1 X152.194 Y124.865 E.04197
G1 X97.719 Y124.872 E1.70803
G1 X96.85 Y124.707 E.02773
G1 X96.06 Y124.321 E.02757
G1 X95.181 Y123.377 E.04044
G1 X94.854 Y122.711 E.02326
G1 X94.702 Y121.951 E.0243
G1 X94.703 Y115.123 E.21409
G1 X94.955 Y114.226 E.02921
G1 X94.703 Y113.327 E.02927
G1 X94.703 Y105.624 E.24152
G1 X94.956 Y104.728 E.02919
G1 X94.703 Y103.827 E.02934
G1 X94.703 Y96.124 E.24152
G1 X94.956 Y95.228 E.02919
G1 X94.703 Y94.327 E.02934
M73 P2 R64
G1 X94.703 Y87.596 E.21105
G1 X94.868 Y86.727 E.02773
M73 Q2 S64
G1 X95.203 Y86.039 E.02399
M204 S1000
G1 X95.203 Y86.039 F10800
G1 X95.54 Y86.207
M204 S800
G1 F1200
G1 X95.573 Y86.14 E.00234
G1 X96.405 Y85.364 E.03567
G1 X97.515 Y84.966 E.03697
G1 X152.214 Y84.969 E1.71505
G1 X153.162 Y85.22 E.03075
G1 X153.967 Y85.799 E.03109
G1 X154.471 Y86.505 E.0272
G1 X154.668 Y87.015 E.01714
G1 X154.758 Y87.569 E.0176
G1 X154.753 Y94.301 E.21108
G1 X154.484 Y95.228 E.03026
G1 X154.753 Y96.152 E.03017
G1 X154.753 Y103.8 E.2398
G1 X154.483 Y104.726 E.03024
G1 X154.753 Y105.652 E.03024
G1 X154.753 Y113.3 E.2398
G1 X154.468 Y114.263 E.03149
G1 X154.63 Y114.605 E.01187
G1 X154.749 Y115.148 E.01743
G1 X154.758 Y121.884 E.2112
G1 X154.635 Y122.549 E.0212
G1 X154.335 Y123.175 E.02177
G1 X153.875 Y123.744 E.02294
G1 X153.287 Y124.172 E.0228
G1 X152.168 Y124.488 E.03646
G1 X97.737 Y124.495 E1.70665
G1 X96.948 Y124.342 E.0252
G1 X96.261 Y124 E.02406
G1 X95.479 Y123.144 E.03635
G1 X95.205 Y122.571 E.01991
G1 X95.079 Y121.933 E.02039
G1 X95.08 Y115.151 E.21264
G1 X95.348 Y114.226 E.0302
G1 X95.08 Y113.3 E.03023
G1 X95.08 Y105.651 E.23983
G1 X95.349 Y104.728 E.03014
G1 X95.08 Y103.8 E.03029
G1 X95.08 Y96.151 E.23983
G1 X95.349 Y95.228 E.03014
G1 X95.08 Y94.3 E.03029
G1 X95.08 Y87.614 E.20963
G1 X95.233 Y86.825 E.0252
G1 X95.513 Y86.26 E.01977
M204 S1000
G1 X95.513 Y86.26 F10800
G1 X95.848 Y86.43
M204 S800
G1 F1200
G1 X95.893 Y86.342 E.0031
G1 X96.609 Y85.682 E.03053
G1 X97.547 Y85.344 E.03126
G1 X152.188 Y85.346 E1.71323
G1 X153.029 Y85.575 E.02733
G1 X153.68 Y86.045 E.02518
G1 X154.129 Y86.667 E.02405
G1 X154.299 Y87.098 E.01453
G1 X154.381 Y87.585 E.01548
G1 X154.375 Y94.274 E.20973
G1 X154.161 Y94.999 E.0237
G1 X154.024 Y95.224 E.00826
G1 X154.376 Y96.179 E.03191
G1 X154.376 Y103.772 E.23807
G1 X154.024 Y104.725 E.03185
G1 X154.376 Y105.679 E.03188
G1 X154.376 Y113.272 E.23807
G1 X154.026 Y114.221 E.03171
G1 X154.268 Y114.712 E.01716
G1 X154.372 Y115.17 E.01473
G1 X154.381 Y121.866 E.20995
G1 X154.269 Y122.453 E.01874
G1 X154.027 Y122.958 E.01756
G1 X153.632 Y123.455 E.01991
G1 X153.093 Y123.847 E.0209
G1 X152.143 Y124.111 E.03092
G1 X97.756 Y124.118 E1.70527
G1 X97.048 Y123.977 E.02263
G1 X96.463 Y123.68 E.02057
G1 X95.806 Y122.955 E.03068
G1 X95.569 Y122.471 E.0169
G1 X95.456 Y121.914 E.01782
G1 X95.457 Y115.179 E.21117
G1 X95.8 Y114.226 E.03176
G1 X95.457 Y113.272 E.03179
G1 X95.457 Y105.679 E.23807
G1 X95.809 Y104.725 E.03188
G1 X95.671 Y104.499 E.0083
G1 X95.457 Y103.772 E.02376
G1 X95.457 Y96.179 E.23807
G1 X95.809 Y95.225 E.03188
G1 X95.671 Y94.999 E.0083
G1 X95.457 Y94.272 E.02376
G1 X95.457 Y87.633 E.20816
G1 X95.597 Y86.925 E.02263
G1 X95.821 Y86.484 E.01551
M204 S1000
G1 X96.154 Y86.657 F10800
M204 S800
G1 F1200
G1 X96.211 Y86.547 E.00388
G1 X96.819 Y85.995 E.02575
G1 X97.58 Y85.721 E.02536
G1 X152.164 Y85.723 E1.71144
G1 X152.841 Y85.903 E.02196
G1 X153.395 Y86.294 E.02126
G1 X153.789 Y86.831 E.02088
G1 X154.004 Y87.601 E.02507
G1 X153.998 Y94.244 E.20829
G1 X153.81 Y94.857 E.0201
G1 X153.565 Y95.219 E.01371
G1 X153.81 Y95.597 E.01412
G1 X153.999 Y96.209 E.02008
G1 X153.999 Y103.743 E.23622
G1 X153.809 Y104.357 E.02015
G1 X153.568 Y104.723 E.01374
G1 X153.81 Y105.097 E.01397
G1 X153.999 Y105.709 E.02008
G1 X153.999 Y113.243 E.23622
G1 X153.809 Y113.857 E.02015
G1 X153.562 Y114.234 E.01413
G1 X153.907 Y114.823 E.0214
G1 X153.995 Y115.194 E.01196
G1 X154.004 Y121.85 E.20869
G1 X153.917 Y122.316 E.01486
G1 X153.718 Y122.741 E.01471
G1 X153.354 Y123.198 E.01832
G1 X152.902 Y123.52 E.0174
G1 X152.118 Y123.734 E.02548
G1 X97.775 Y123.741 E1.70389
G1 X97.15 Y123.613 E.02
G1 X96.668 Y123.363 E.01702
G1 X96.131 Y122.763 E.02525
G1 X95.933 Y122.368 E.01385
G1 X95.833 Y121.894 E.01519
G1 X95.834 Y115.208 E.20963
G1 X96.024 Y114.59 E.02027
G1 X96.297 Y114.226 E.01427
G1 X96.023 Y113.861 E.01431
G1 X95.834 Y113.243 E.02026
G1 X95.834 Y105.709 E.23622
G1 X96.024 Y105.095 E.02015
G1 X96.269 Y104.721 E.01402
G1 X96.022 Y104.356 E.01382
G1 X95.834 Y103.743 E.0201
G1 X95.834 Y96.209 E.23622
G1 X96.024 Y95.595 E.02015
G1 X96.269 Y95.221 E.01402
G1 X96.022 Y94.856 E.01382
G1 X95.834 Y94.243 E.0201
G1 X95.834 Y87.652 E.20666
G1 X95.961 Y87.027 E.02
G1 X96.126 Y86.71 E.01121
M204 S1000
G1 X96.126 Y86.71 F10800
G1 X96.456 Y86.887
M204 S800
G1 F1200
G1 X96.526 Y86.757 E.00463
G1 X97.028 Y86.313 E.02101
G1 X97.615 Y86.098 E.0196
G1 X152.141 Y86.1 E1.70962
G1 X152.657 Y86.233 E.01671
G1 X153.113 Y86.546 E.01734
G1 X153.451 Y86.999 E.01772
G1 X153.627 Y87.619 E.02021
G1 X153.621 Y94.213 E.20675
G1 X153.459 Y94.719 E.01666
G1 X153.001 Y95.234 E.02161
G1 X153.461 Y95.741 E.02146
G1 X153.621 Y96.239 E.0164
G1 X153.621 Y103.712 E.23431
G1 X153.46 Y104.212 E.01647
G1 X152.989 Y104.723 E.02179
G1 X153.461 Y105.241 E.02197
G1 X153.621 Y105.739 E.0164
G1 X153.621 Y113.212 E.23431
G1 X153.46 Y113.712 E.01647
G1 X152.994 Y114.219 E.02159
G1 X153.371 Y114.599 E.01678
G1 X153.618 Y115.216 E.02084
G1 X153.627 Y121.832 E.20744
M73 P2 R63
G1 X153.407 Y122.527 E.02286
G1 X153.111 Y122.908 E.01513
G1 X152.712 Y123.193 E.01537
G1 X152.094 Y123.357 E.02005
G1 X97.795 Y123.363 E1.70251
G1 X97.256 Y123.25 E.01727
G1 X96.879 Y123.048 E.01341
G1 X96.433 Y122.536 E.02129
G1 X96.21 Y121.875 E.02187
G1 X96.211 Y115.238 E.2081
G1 X96.374 Y114.733 E.01664
G1 X96.824 Y114.226 E.02126
G1 X96.373 Y113.719 E.02128
G1 X96.211 Y113.212 E.01669
G1 X96.211 Y105.739 E.23431
G1 X96.373 Y105.24 E.01645
