; generated by PrusaSlicer 2.9.0 on 2025-05-15 at 02:55:02 UTC


;
;
; 

; external perimeters extrusion width = 0.45mm
; perimeters extrusion width = 0.45mm
; infill extrusion width = 0.45mm
; solid infill extrusion width = 0.45mm
; top infill extrusion width = 0.40mm
; support material extrusion width = 0.35mm
; first layer extrusion width = 0.42mm

M73 P0 R29
M73 Q0 S29
M201 X1000 Y1000 Z200 E5000 ; sets maximum accelerations, mm/sec^2
M203 X200 Y200 Z12 E120 ; sets maximum feedrates, mm / sec
M204 S1250 T1250 ; sets acceleration (S) and retract acceleration (R), mm/sec^2
M205 X8.00 Y8.00 Z0.40 E4.50 ; sets the jerk limits, mm/sec
M205 S0 T0 ; sets the minimum extruding and travel feed rate, mm/sec

; printing object smiley_face.stl id:0 copy 0
; stop printing object smiley_face.stl id:0 copy 0

;TYPE:Custom
M862.3 P "MK3S" ; printer model check
M862.1 P0.4 ; nozzle diameter check
M115 U3.14.1 ; tell printer latest fw version
G90 ; use absolute coordinates
M83 ; extruder relative mode
M104 S215 ; set extruder temp
M140 S60 ; set bed temp
M190 S60 ; wait for bed temp
M109 S215 ; wait for extruder temp
G28 W ; home all without mesh bed level
G80 X92.6334 Y72.6338 W64.7332 H64.7323 ; mesh bed levelling

G1 Z0.2 F720
G1 Y-3 F1000 ; go outside print area
G92 E0
G1 X60 E9 F1000 ; intro line
G1 X100 E12.5 F1000 ; intro line

G92 E0
M221 S95

; Don't change E values below. Excessive value can damage the printer.
M907 E430 ; set extruder motor current
G21 ; set units to millimeters
G90 ; use absolute coordinates
M83 ; use relative distances for extrusion

M900 K0.05 ; Filament gcode LA 1.5
M900 K30 ; Filament gcode LA 1.0




M107
;LAYER_CHANGE
;Z:0.2
;HEIGHT:0.2
G1 E-.8 F2100
G1 Z.6 F720
G1 X101.975 Y82.544 F10800
G1 Z.2 F720
G1 E.8 F2100
M204 S800
;TYPE:Skirt/Brim
;WIDTH:0.42
G1 F1200
G1 X102.094 Y82.397 E.00593
G1 X106.945 Y78.363 E.19782
G1 X112.487 Y75.353 E.19774
G1 X118.512 Y73.481 E.19782
G1 X124.786 Y72.821 E.1978
G1 X131.067 Y73.397 E.19776
G1 X137.116 Y75.188 E.1978
G1 X142.699 Y78.126 E.19781
G1 X147.602 Y82.093 E.19775
G1 X151.637 Y86.944 E.19784
G1 X154.647 Y92.487 E.19777
G1 X156.518 Y98.511 E.19778
G1 X157.179 Y104.785 E.19781
G1 X156.602 Y111.067 E.1978
G1 X154.811 Y117.116 E.1978
G1 X151.875 Y122.698 E.19775
G1 X147.906 Y127.602 E.19781
G1 X143.055 Y131.636 E.19782
G1 X137.513 Y134.647 E.19776
G1 X131.488 Y136.518 E.19781
G1 X125.215 Y137.178 E.19777
G1 X118.932 Y136.601 E.19783
G1 X112.884 Y134.811 E.19776
G1 X107.301 Y131.875 E.19778
G1 X102.398 Y127.905 E.19781
G1 X98.363 Y123.055 E.19781
G1 X95.353 Y117.512 E.19777
G1 X93.482 Y111.488 E.19778
G1 X92.821 Y105.214 E.19781
G1 X93.398 Y98.932 E.1978
G1 X95.189 Y92.883 E.1978
G1 X98.125 Y87.301 E.19775
G1 X101.937 Y82.591 E.18999
M204 S1000
;WIPE_START
G1 F8640
G1 X101.975 Y82.544 E-.01396
G1 X102.094 Y82.397 E-.04367
G1 X104.566 Y80.342 E-.74237
;WIPE_END
G1 Z.6 F720
; printing object smiley_face.stl id:0 copy 0
G1 X134.377 Y120.796 F10800
G1 Z.2 F720
M73 Q1 S29
G1 E.8 F2100
M73 P1 R29
M204 S800
;TYPE:Perimeter
;WIDTH:0.419999
G1 F1200
G1 X134.322 Y120.866 E.00279
G1 X134.053 Y120.974 E.00909
G1 X129.858 Y120.979 E.13153
G1 X129.574 Y120.902 E.00923
G1 X129.391 Y120.732 E.00783
G1 X129.294 Y120.459 E.00908
G1 X129.292 Y108.079 E.38817
G1 X129.359 Y107.812 E.00863
G1 X129.47 Y107.667 E.00573
G1 X129.675 Y107.544 E.0075
G1 X129.858 Y107.513 E.00582
G1 X133.982 Y107.513 E.1293
G1 X134.222 Y107.567 E.00771
G1 X134.434 Y107.739 E.00856
G1 X134.542 Y107.995 E.00871
G1 X134.548 Y120.413 E.38936
G1 X134.497 Y120.648 E.00754
G1 X134.415 Y120.75 E.0041
M204 S1000
G1 X134.415 Y120.75 F10800
G1 X134.128 Y120.514
M204 S800
;TYPE:External perimeter
G1 F1200
G1 X134.114 Y120.548 E.00115
G1 X133.982 Y120.601 E.00446
G1 X129.858 Y120.601 E.1293
G1 X129.714 Y120.535 E.00497
G1 X129.669 Y120.413 E.00408
G1 X129.669 Y108.077 E.38679
G1 X129.728 Y107.942 E.00462
G1 X129.858 Y107.89 E.00439
G1 X133.982 Y107.89 E.1293
G1 X134.126 Y107.956 E.00497
G1 X134.171 Y108.079 E.00411
G1 X134.171 Y120.413 E.38672
G1 X134.152 Y120.459 E.00156
M204 S1000
;WIPE_START
G1 F8640
G1 X134.128 Y120.514 E-.01386
G1 X134.114 Y120.548 E-.00849
G1 X133.982 Y120.601 E-.03284
G1 X130.756 Y120.601 E-.74481
;WIPE_END
G1 Z.6 F720
G1 X120.951 Y120.738 F10800
G1 Z.2 F720
G1 E.8 F2100
M204 S800
;TYPE:Perimeter
G1 F1200
G1 X120.878 Y120.819 E.00342
G1 X120.558 Y120.918 E.0105
G1 X116.435 Y120.918 E.12927
G1 X116.168 Y120.851 E.00863
G1 X115.978 Y120.686 E.00789
G1 X115.878 Y120.45 E.00804
G1 X115.869 Y108.019 E.38976
G1 X115.891 Y107.861 E.005
G1 X116.012 Y107.644 E.00779
G1 X116.238 Y107.489 E.00859
G1 X116.435 Y107.453 E.00628
G1 X120.559 Y107.453 E.1293
G1 X120.841 Y107.529 E.00916
G1 X121.025 Y107.698 E.00783
G1 X121.117 Y107.922 E.00759
G1 X121.125 Y120.352 E.38973
G1 X121.059 Y120.617 E.00856
G1 X120.991 Y120.693 E.0032
M204 S1000
G1 X120.991 Y120.693 F10800
G1 X120.699 Y120.455
M204 S800
;TYPE:External perimeter
G1 F1200
G1 X120.679 Y120.498 E.00149
G1 X120.558 Y120.54 E.00402
G1 X116.435 Y120.54 E.12927
G1 X116.297 Y120.481 E.00471
G1 X116.246 Y120.352 E.00435
G1 X116.254 Y107.966 E.38835
G1 X116.349 Y107.851 E.00468
G1 X116.435 Y107.83 E.00278
G1 X120.559 Y107.83 E.1293
G1 X120.702 Y107.896 E.00494
G1 X120.748 Y108.019 E.00412
G1 X120.748 Y120.354 E.38675
G1 X120.726 Y120.401 E.00163
M204 S1000
;WIPE_START
G1 F8640
G1 X120.699 Y120.455 E-.01394
G1 X120.679 Y120.498 E-.01095
G1 X120.558 Y120.54 E-.02957
G1 X117.329 Y120.54 E-.74554
;WIPE_END
G1 Z.6 F720
G1 X138.704 Y91.105 F10800
G1 Z.2 F720
G1 E.8 F2100
M204 S800
;TYPE:Perimeter
G1 F1200
G1 X138.747 Y91.295 E.00611
G1 X138.673 Y91.585 E.00938
G1 X136.634 Y95.173 E.1294
G1 X136.433 Y95.379 E.00902
G1 X136.206 Y95.455 E.00751
G1 X135.616 Y95.356 E.01876
G1 X133.219 Y94.824 E.07698
G1 X130.531 Y94.419 E.08523
G1 X127.796 Y94.194 E.08604
G1 X125.038 Y94.151 E.08649
G1 X124.791 Y94.164 E.00776
G1 X122.289 Y94.292 E.07855
G1 X119.576 Y94.614 E.08566
G1 X116.925 Y95.111 E.08457
G1 X114.178 Y95.832 E.08905
G1 X113.92 Y95.839 E.00809
G1 X113.665 Y95.713 E.00892
G1 X113.562 Y95.596 E.00489
G1 X111.25 Y92.088 E.13173
G1 X111.163 Y91.86 E.00765
G1 X111.195 Y91.572 E.00909
G1 X111.363 Y91.339 E.00901
G1 X111.579 Y91.229 E.0076
G1 X114.966 Y90.342 E.10978
G1 X118.203 Y89.731 E.10329
G1 X121.548 Y89.336 E.10561
G1 X124.897 Y89.165 E.10514
G1 X128.215 Y89.219 E.10405
G1 X131.548 Y89.49 E.10485
G1 X134.827 Y89.982 E.10396
G1 X138.304 Y90.753 E.11167
G1 X138.543 Y90.87 E.00834
G1 X138.681 Y91.05 E.00711
M204 S1000
G1 X138.681 Y91.05 F10800
G1 X138.352 Y91.277
M204 S800
;TYPE:External perimeter
G1 F1200
G1 X138.361 Y91.365 E.00277
G1 X138.346 Y91.398 E.00114
G1 X136.307 Y94.986 E.1294
G1 X136.183 Y95.077 E.00482
G1 X135.404 Y94.922 E.0249
G1 X133.288 Y94.453 E.06796
G1 X130.575 Y94.044 E.08603
G1 X127.814 Y93.817 E.08686
G1 X125.031 Y93.774 E.08727
G1 X124.772 Y93.787 E.00813
G1 X122.257 Y93.916 E.07896
G1 X119.519 Y94.241 E.08645
G1 X116.842 Y94.743 E.0854
G1 X114.082 Y95.467 E.08947
G1 X113.927 Y95.44 E.00493
G1 X113.877 Y95.389 E.00224
G1 X111.565 Y91.88 E.13176
G1 X111.539 Y91.733 E.00468
G1 X111.63 Y91.612 E.00475
G1 X111.674 Y91.594 E.00149
G1 X115.062 Y90.707 E.10981
G1 X118.273 Y90.101 E.10246
G1 X121.568 Y89.712 E.10403
G1 X124.878 Y89.543 E.10392
G1 X128.209 Y89.596 E.10445
G1 X131.53 Y89.867 E.10447
G1 X134.783 Y90.358 E.10315
G1 X138.223 Y91.121 E.11048
G1 X138.346 Y91.213 E.00482
G1 X138.346 Y91.217 E.00013
M204 S1000
;WIPE_START
G1 F8640
G1 X138.352 Y91.277 E-.01392
G1 X138.361 Y91.365 E-.02043
G1 X138.346 Y91.398 E-.00837
G1 X136.725 Y94.25 E-.75728
;WIPE_END
G1 Z.6 F720
G1 X125.253 Y75.815 F10800
G1 Z.2 F720
G1 E.8 F2100
M204 S800
;TYPE:Perimeter
G1 F1200
G1 X130.699 Y76.351 E.17158
G1 X136.178 Y78.013 E.17952
G1 X141.228 Y80.713 E.17955
G1 X145.655 Y84.345 E.17954
G1 X149.287 Y88.772 E.17954
G1 X151.986 Y93.821 E.17951
G1 X153.648 Y99.301 E.17955
G1 X154.21 Y104.999 E.17952
G1 X154.113 Y105.984 E.03103
G1 X153.648 Y110.698 E.14852
G1 X151.986 Y116.178 E.17955
M73 Q2 S29
G1 X149.287 Y121.227 E.17951
G1 X145.655 Y125.654 E.17954
M73 P2 R29
G1 X141.228 Y129.287 E.17956
G1 X136.178 Y131.986 E.17953
G1 X130.699 Y133.648 E.17952
G1 X125 Y134.21 E.17955
G1 X119.301 Y133.648 E.17955
G1 X113.822 Y131.986 E.17952
G1 X108.772 Y129.287 E.17953
G1 X104.345 Y125.654 E.17956
G1 X100.713 Y121.227 E.17954
G1 X98.014 Y116.178 E.17951
G1 X96.352 Y110.698 E.17955
G1 X95.79 Y104.999 E.17955
G1 X96.352 Y99.301 E.17952
G1 X98.014 Y93.821 E.17955
G1 X100.713 Y88.772 E.17951
G1 X104.345 Y84.345 E.17954
G1 X108.772 Y80.713 E.17954
G1 X113.822 Y78.013 E.17955
G1 X119.301 Y76.351 E.17952
G1 X125 Y75.79 E.17955
G1 X125.193 Y75.809 E.00608
M204 S1000
G1 X125.193 Y75.809 F10800
G1 X125.29 Y75.44
M204 S800
;TYPE:External perimeter
G1 F1200
G1 X130.773 Y75.98 E.17275
G1 X136.323 Y77.663 E.18184
G1 X141.438 Y80.398 E.18186
G1 X145.923 Y84.077 E.18188
G1 X149.602 Y88.561 E.18186
G1 X152.336 Y93.676 E.18185
G1 X154.02 Y99.227 E.18188
G1 X154.589 Y104.999 E.18185
G1 X154.488 Y106.021 E.0322
G1 X154.02 Y110.772 E.14968
G1 X152.336 Y116.323 E.18188
G1 X149.602 Y121.438 E.18185
G1 X145.923 Y125.922 E.18186
G1 X141.438 Y129.602 E.1819
G1 X136.323 Y132.336 E.18185
G1 X130.773 Y134.019 E.18184
G1 X125 Y134.589 E.18189
G1 X119.227 Y134.019 E.18189
G1 X113.677 Y132.336 E.18184
G1 X108.562 Y129.602 E.18185
M73 P2 R28
G1 X104.077 Y125.922 E.1819
G1 X100.398 Y121.438 E.18186
G1 X97.664 Y116.323 E.18185
G1 X95.98 Y110.772 E.18188
G1 X95.411 Y104.999 E.18189
G1 X95.98 Y99.227 E.18185
G1 X97.664 Y93.676 E.18188
G1 X100.398 Y88.561 E.18185
G1 X104.077 Y84.077 E.18186
G1 X108.562 Y80.398 E.18188
M73 Q2 S28
G1 X113.677 Y77.663 E.18186
G1 X119.227 Y75.98 E.18184
G1 X125 Y75.411 E.18189
G1 X125.23 Y75.434 E.00725
M204 S1000
;WIPE_START
G1 F8640
G1 X125.29 Y75.44 E-.01392
G1 X128.678 Y75.773 E-.78608
;WIPE_END
G1 Z.6 F720
G1 X141.227 Y80.932 F10800
G1 Z.2 F720
G1 E.8 F2100
M204 S800
;TYPE:Solid infill
;WIDTH:0.420305
G1 F1200
G1 X147.849 Y87.554 E.29387
G1 X149.004 Y88.961 E.05712
G1 X149.327 Y89.565 E.02149
G1 X140.436 Y80.675 E.39454
G1 X139.289 Y80.061 E.04083
G1 X149.94 Y90.712 E.47267
G1 X150.552 Y91.859 E.0408
M73 P3 R28
M73 Q3 S28
G1 X138.142 Y79.448 E.55075
G1 X136.995 Y78.835 E.04081
G1 X151.165 Y93.005 E.62883
G1 X151.671 Y93.952 E.03369
G1 X151.712 Y94.085 E.00437
G1 X135.914 Y78.288 E.70105
G1 X135.148 Y78.055 E.02512
G1 X151.944 Y94.851 E.74537
G1 X152.176 Y95.617 E.02512
G1 X134.382 Y77.823 E.78965
G1 X133.616 Y77.591 E.02512
G1 X152.409 Y96.383 E.83397
G1 X152.641 Y97.149 E.02512
G1 X132.85 Y77.358 E.87828
G1 X132.084 Y77.126 E.02512
G1 X152.874 Y97.916 E.92261
G1 X153.106 Y98.682 E.02512
G1 X131.318 Y76.894 E.9669
G1 X130.57 Y76.68 E.02441
G1 X153.32 Y99.429 E1.00957
G1 X153.378 Y100.021 E.01867
G1 X129.978 Y76.621 E1.03844
G1 X129.386 Y76.563 E.01867
G1 X153.437 Y100.614 E1.06733
G1 X153.495 Y101.206 E.01867
G1 X128.794 Y76.505 E1.09617
G1 X128.202 Y76.447 E.01867
M73 P4 R28
M73 Q4 S28
G1 X153.553 Y101.798 E1.12502
G1 X153.612 Y102.39 E.01867
G1 X127.61 Y76.388 E1.15391
G1 X127.018 Y76.33 E.01867
G1 X153.67 Y102.982 E1.18275
G1 X153.729 Y103.574 E.01867
G1 X126.426 Y76.272 E1.21162
G1 X125.834 Y76.214 E.01867
G1 X153.787 Y104.166 E1.24046
G1 X153.845 Y104.758 E.01867
G1 X125.243 Y76.155 E1.26931
G1 X125 Y76.131 E.00766
G1 X124.713 Y76.16 E.00905
G1 X153.841 Y105.287 E1.29261
G1 X153.793 Y105.773 E.01532
G1 X124.227 Y76.207 E1.31207
G1 X123.741 Y76.255 E.01532
G1 X137.784 Y90.298 E.62319
G1 X137.096 Y90.144 E.02212
M73 P5 R28
M73 Q5 S28
G1 X123.256 Y76.303 E.61421
G1 X122.77 Y76.351 E.01532
G1 X136.408 Y89.989 E.60522
G1 X135.72 Y89.835 E.02212
G1 X122.284 Y76.399 E.59626
G1 X121.798 Y76.447 E.01532
G1 X135.032 Y89.681 E.58729
G1 X134.391 Y89.574 E.02039
G1 X121.312 Y76.494 E.58044
G1 X120.826 Y76.542 E.01532
G1 X133.763 Y89.48 E.57414
G1 X133.136 Y89.385 E.0199
G1 X120.34 Y76.59 E.56783
G1 X119.854 Y76.638 E.01532
G1 X132.508 Y89.291 E.56153
G1 X131.88 Y89.197 E.01993
G1 X119.368 Y76.686 E.55523
G1 X118.959 Y76.81 E.01341
G1 X131.276 Y89.127 E.5466
G1 X130.695 Y89.08 E.01829
G1 X118.549 Y76.934 E.53901
G1 X118.14 Y77.058 E.01341
G1 X130.115 Y89.033 E.53142
G1 X129.534 Y88.986 E.01829
G1 X117.73 Y77.182 E.52383
G1 X117.321 Y77.307 E.01342
G1 X128.953 Y88.938 E.51618
G1 X128.372 Y88.891 E.01829
G1 X116.911 Y77.431 E.50859
G1 X116.502 Y77.555 E.01341
G1 X127.82 Y88.873 E.50227
G1 X127.278 Y88.865 E.01701
G1 X116.092 Y77.679 E.49641
G1 X115.683 Y77.803 E.01341
G1 X126.736 Y88.856 E.49051
G1 X126.194 Y88.848 E.01701
G1 X115.273 Y77.928 E.48463
G1 X114.864 Y78.052 E.01341
G1 X125.651 Y88.839 E.4787
G1 X125.109 Y88.831 E.01701
M73 P6 R27
M73 Q6 S28
G1 X114.454 Y78.176 E.47284
G1 X114.045 Y78.3 E.01341
G1 X124.585 Y88.84 E.46774
G1 X124.078 Y88.867 E.01593
G1 X113.683 Y78.472 E.46131
G1 X113.335 Y78.658 E.01238
G1 X123.57 Y88.893 E.4542
G1 X123.062 Y88.919 E.01596
M73 Q6 S27
G1 X112.988 Y78.844 E.44708
G1 X112.64 Y79.03 E.01238
G1 X122.555 Y88.945 E.44
G1 X122.047 Y88.971 E.01596
G1 X112.292 Y79.216 E.4329
G1 X111.944 Y79.402 E.01238
G1 X121.54 Y88.997 E.42583
G1 X121.059 Y89.051 E.01519
G1 X111.597 Y79.588 E.41992
G1 X111.249 Y79.774 E.01238
G1 X120.582 Y89.107 E.41418
G1 X120.105 Y89.163 E.01507
G1 X110.901 Y79.96 E.40843
G1 X110.553 Y80.146 E.01238
G1 X119.627 Y89.22 E.40268
G1 X119.15 Y89.276 E.01507
G1 X110.206 Y80.332 E.39691
G1 X109.858 Y80.518 E.01238
G1 X118.672 Y89.332 E.39114
G1 X118.195 Y89.389 E.01507
G1 X109.51 Y80.703 E.38544
G1 X109.162 Y80.889 E.01238
G1 X117.746 Y89.473 E.38094
G1 X117.297 Y89.557 E.01433
G1 X108.838 Y81.098 E.37539
G1 X108.544 Y81.339 E.01193
G1 X116.847 Y89.642 E.36847
G1 X116.398 Y89.726 E.01433
G1 X108.251 Y81.58 E.36152
G1 X107.958 Y81.82 E.01188
G1 X115.949 Y89.811 E.35462
G1 X115.499 Y89.895 E.01436
G1 X107.665 Y82.061 E.34765
G1 X107.372 Y82.301 E.01188
G1 X115.05 Y89.98 E.34075
G1 X114.621 Y90.084 E.01385
G1 X107.078 Y82.542 E.33472
G1 X106.785 Y82.782 E.01188
G1 X114.198 Y90.195 E.32897
G1 X113.776 Y90.306 E.01369
G1 X106.492 Y83.023 E.32322
G1 X106.199 Y83.263 E.01188
G1 X113.353 Y90.418 E.3175
G1 X112.931 Y90.529 E.01369
G1 X105.906 Y83.504 E.31175
G1 X105.613 Y83.744 E.01188
M73 P7 R27
M73 Q7 S27
G1 X112.508 Y90.64 E.30601
G1 X112.086 Y90.751 E.01369
G1 X105.319 Y83.985 E.30028
G1 X105.026 Y84.225 E.01188
G1 X111.663 Y90.862 E.29453
G1 X111.381 Y90.937 E.00916
G1 X111.27 Y91.003 E.00405
G1 X104.733 Y84.466 E.2901
G1 X104.586 Y84.586 E.00595
G1 X104.466 Y84.732 E.00593
G1 X110.987 Y91.253 E.28939
G1 X110.876 Y91.454 E.00721
G1 X110.833 Y91.633 E.00578
G1 X104.226 Y85.026 E.2932
G1 X103.985 Y85.319 E.0119
G1 X111.016 Y92.35 E.31202
G1 X112.049 Y93.916 E.05887
G1 X103.624 Y85.491 E.37388
M204 S1000
;WIPE_START
G1 F8640
G1 X106.074 Y87.941 E-.8
;WIPE_END
G1 Z.6 F720
G1 X138.901 Y91.415 F10800
G1 Z.2 F720
G1 E.8 F2100
M204 S800
G1 F1200
G1 X153.745 Y106.259 E.65874
G1 X153.697 Y106.745 E.01532
G1 X138.873 Y91.92 E.65788
G1 X138.679 Y92.261 E.01231
G1 X153.649 Y107.23 E.66431
G1 X153.601 Y107.716 E.01532
G1 X138.486 Y92.601 E.67077
G1 X138.292 Y92.941 E.01228
G1 X153.553 Y108.202 E.67725
G1 X153.505 Y108.688 E.01532
G1 X138.099 Y93.281 E.6837
G1 X137.905 Y93.621 E.01228
G1 X153.458 Y109.174 E.6902
G1 X153.41 Y109.659 E.01529
G1 X137.712 Y93.961 E.69664
G1 X137.518 Y94.302 E.01231
G1 X153.362 Y110.145 E.7031
G1 X153.314 Y110.631 E.01532
G1 X137.325 Y94.642 E.70955
G1 X137.131 Y94.982 E.01228
G1 X153.19 Y111.041 E.71266
G1 X153.066 Y111.45 E.01341
G1 X136.937 Y95.322 E.71574
G1 X136.892 Y95.403 E.00291
M73 P8 R27
M73 Q8 S27
G1 X136.691 Y95.609 E.00903
G1 X152.941 Y111.86 E.72116
G1 X152.817 Y112.269 E.01341
G1 X136.327 Y95.779 E.73179
G1 X136.147 Y95.799 E.00568
G1 X135.747 Y95.732 E.01273
G1 X152.693 Y112.679 E.75204
G1 X152.569 Y113.088 E.01341
G1 X135.061 Y95.58 E.77696
G1 X134.375 Y95.428 E.02205
G1 X152.445 Y113.498 E.8019
G1 X152.32 Y113.907 E.01342
G1 X133.689 Y95.276 E.8268
G1 X133.016 Y95.136 E.02157
G1 X152.196 Y114.317 E.85118
G1 X152.072 Y114.726 E.01341
G1 X132.387 Y95.042 E.87355
G1 X131.759 Y94.947 E.01993
